X: 1
T:Uncle Tom’s Best
M:4/4
L:1/8
S:Ryan’s Mammoth Collection (1883)
Z:AK/Fiddler’s Companion
K:D
A, | DFAc dfzf | ecdB AFzG | A,CEF GBzB | AFGE D2zA, | DFAc dfzf | ecdB AFzG |
A,CEF GBzB | AFGE D2z || A, | D2 FD ED B,2 | D2 FD CEzA, | D2 FD ED zc |
DBAG FDEC | D2 FD ED B,2 | D2 FD CEzA, | D2 FD ED zc | dcec dBAF || 
